Simply black circles/symbolic/panel/battery-missing-symbolic.svg

<?xml version="1.0" encoding="UTF-8" standalone="no"?>
<svg
   xmlns:dc="http://purl.org/dc/elements/1.1/"
   xmlns:cc="http://creativecommons.org/ns#"
   xmlns:rdf="http://www.w3.org/1999/02/22-rdf-syntax-ns#"
   xmlns:svg="http://www.w3.org/2000/svg"
   xmlns="http://www.w3.org/2000/svg"
   xmlns:sodipodi="http://sodipodi.sourceforge.net/DTD/sodipodi-0.dtd"
   xmlns:inkscape="http://www.inkscape.org/namespaces/inkscape"
   width="24"
   height="24"
   version="1.1"
   id="svg10"
   sodipodi:docname="battery-missing-symbolic.svg"
   inkscape:version="0.92.3 (2405546, 2018-03-11)">
  <metadata
     id="metadata16">
    <rdf:RDF>
      <cc:Work
         rdf:about="">
        <dc:format>image/svg+xml</dc:format>
        <dc:type
           rdf:resource="http://purl.org/dc/dcmitype/StillImage" />
        <dc:title></dc:title>
      </cc:Work>
    </rdf:RDF>
  </metadata>
  <defs
     id="defs14" />
  <sodipodi:namedview
     pagecolor="#ffffff"
     bordercolor="#666666"
     borderopacity="1"
     objecttolerance="10"
     gridtolerance="10"
     guidetolerance="10"
     inkscape:pageopacity="0"
     inkscape:pageshadow="2"
     inkscape:window-width="1366"
     inkscape:window-height="719"
     id="namedview12"
     showgrid="false"
     showguides="true"
     inkscape:guide-bbox="true"
     inkscape:snap-global="true"
     inkscape:zoom="15.6742"
     inkscape:cx="12"
     inkscape:cy="12"
     inkscape:window-x="0"
     inkscape:window-y="25"
     inkscape:window-maximized="1"
     inkscape:current-layer="svg10" />
  <path
     style="opacity:1;fill:#808080;fill-opacity:0.99579827;stroke:none;stroke-width:1.5;stroke-miterlimit:4;stroke-dasharray:none;stroke-opacity:1"
     d="M 12 0.08984375 C 5.352 0.08984375 0 5.3820559 0 11.955078 C 0 18.5281 5.352 23.820312 12 23.820312 C 18.648 23.820312 24 18.5281 24 11.955078 C 24 5.3820559 18.648 0.08984375 12 0.08984375 z M 12 3.0566406 C 16.986 3.0566406 21 7.0253116 21 11.955078 C 21 16.884845 16.986 20.853516 12 20.853516 C 7.014 20.853516 3 16.884845 3 11.955078 C 3 7.0253116 7.014 3.0566406 12 3.0566406 z M 11.740234 5.0039062 C 9.4417466 5.1326888 7.6759049 6.9032388 7.8046875 9.203125 L 10.603516 9.203125 C 10.558722 8.4136326 11.127925 7.8480815 11.916016 7.8046875 A 1.3830132 1.3830132 0 0 1 13.402344 9.1171875 L 13.402344 9.1582031 C 13.40794 9.34018 13.3587 9.6147073 13.228516 9.7714844 C 12.910759 10.152235 12.549789 10.465482 12.265625 10.689453 A 5.347278 5.347278 0 0 0 11.257812 11.654297 C 10.916258 12.08264 10.603516 12.698238 10.603516 13.402344 C 10.593717 14.141444 11.263406 14.802734 12.003906 14.802734 C 12.743006 14.802734 13.412144 14.141444 13.402344 13.402344 C 13.402344 13.405144 13.377296 13.445632 13.447266 13.357422 C 13.515859 13.270634 13.703339 13.12345 13.970703 12.921875 C 15.672873 11.631252 16.203125 10.903943 16.203125 8.9414062 C 16.074343 6.642917 14.040124 4.8751236 11.740234 5.0039062 z M 11.947266 16.203125 A 1.3998118 1.3998118 0 0 0 12.003906 19.001953 A 1.3998118 1.3998118 0 1 0 12.003906 16.203125 A 1.3998118 1.3998118 0 0 0 11.947266 16.203125 z "
     id="rect814" />
</svg>

<svg xmlns="http://www.w3.org/2000/svg" width="24" height="24"><path d="M12 .09C5.352.09 0 5.382 0 11.955S5.352 23.82 12 23.82s12-5.292 12-11.865S18.648.09 12 .09zm0 2.967c4.986 0 9 3.968 9 8.898s-4.014 8.899-9 8.899-9-3.97-9-8.899c0-4.93 4.014-8.898 9-8.898zm-.26 1.947c-2.298.129-4.064 1.9-3.935 4.2h2.799c-.045-.79.524-1.356 1.312-1.4a1.383 1.383 0 0 1 1.486 1.313v.041c.006.182-.043.457-.173.613-.318.381-.68.694-.963.918a5.347 5.347 0 0 0-1.008.965c-.342.429-.654 1.044-.654 1.748-.01.74.66 1.4 1.4 1.4.739 0 1.408-.66 1.398-1.4 0 .003-.025.044.045-.045.069-.086.256-.234.524-.435 1.702-1.29 2.232-2.018 2.232-3.98-.129-2.3-2.163-4.067-4.463-3.938zm.207 11.2a1.4 1.4 0 0 0 .057 2.798 1.4 1.4 0 1 0 0-2.799 1.4 1.4 0 0 0-.057 0z" fill="gray" fill-opacity=".996"/></svg>
